files/2/96x96/places/folder-recent.svg

<?xml version="1.0" encoding="UTF-8" standalone="no"?>
<svg
   xmlns:dc="http://purl.org/dc/elements/1.1/"
   xmlns:cc="http://creativecommons.org/ns#"
   xmlns:rdf="http://www.w3.org/1999/02/22-rdf-syntax-ns#"
   xmlns:svg="http://www.w3.org/2000/svg"
   xmlns="http://www.w3.org/2000/svg"
   xmlns:sodipodi="http://sodipodi.sourceforge.net/DTD/sodipodi-0.dtd"
   xmlns:inkscape="http://www.inkscape.org/namespaces/inkscape"
   width="96"
   viewBox="0 0 96 96"
   height="96"
   id="svg3031"
   version="1.1"
   inkscape:version="0.48.5 r10040"
   sodipodi:docname="folder-recent.svg">
  <metadata
     id="metadata3049">
    <rdf:RDF>
      <cc:Work
         rdf:about="">
        <dc:format>image/svg+xml</dc:format>
        <dc:type
           rdf:resource="http://purl.org/dc/dcmitype/StillImage" />
      </cc:Work>
    </rdf:RDF>
  </metadata>
  <defs
     id="defs3047" />
  <sodipodi:namedview
     pagecolor="#ffffff"
     bordercolor="#666666"
     borderopacity="1"
     objecttolerance="10"
     gridtolerance="10"
     guidetolerance="10"
     inkscape:pageopacity="0"
     inkscape:pageshadow="2"
     inkscape:window-width="1280"
     inkscape:window-height="998"
     id="namedview3045"
     showgrid="true"
     inkscape:zoom="4.9166665"
     inkscape:cx="59.552284"
     inkscape:cy="35.357787"
     inkscape:window-x="0"
     inkscape:window-y="0"
     inkscape:window-maximized="1"
     inkscape:current-layer="svg3031">
    <inkscape:grid
       type="xygrid"
       id="grid2992"
       empspacing="5"
       visible="true"
       enabled="true"
       snapvisiblegridlinesonly="true" />
  </sodipodi:namedview>
  <path
     style="font-size:medium;font-style:normal;font-variant:normal;font-weight:normal;font-stretch:normal;text-indent:0;text-align:start;text-decoration:none;line-height:normal;letter-spacing:normal;word-spacing:normal;text-transform:none;direction:ltr;block-progression:tb;writing-mode:lr-tb;text-anchor:start;baseline-shift:baseline;color:#000000;fill:#e9b080;fill-opacity:1;fill-rule:nonzero;stroke:none;stroke-width:1;marker:none;visibility:visible;display:inline;overflow:visible;enable-background:accumulate;font-family:Sans;-inkscape-font-specification:Sans"
     d="m 12.000041,12.000036 c -1.999999,0 -3.999998,1.999999 -3.999998,3.999998 l 0,3.999998 -1.999999,0 c -1.999999,0 -4.0111358,1.898413 -3.999998,3.999998 l 0,55.999972 C 2.000302,82.241469 4.075571,83.9998 6.3750438,84 L 89.625002,84 C 92.000001,84 94,82.000001 94,80.000002 l 0,-49.999975 c 0,-1.999999 -1.999999,-3.999998 -3.999998,-3.999998 l -3.999998,0 0,-9.999995 c 0,-1.999999 -1.999999,-3.999998 -3.999998,-3.999998 z"
     id="path3770"
     inkscape:connector-curvature="0"
     sodipodi:nodetypes="sscsccccccccsss" />
  <path
     inkscape:connector-curvature="0"
     style="font-size:medium;font-style:normal;font-variant:normal;font-weight:normal;font-stretch:normal;text-indent:0;text-align:start;text-decoration:none;line-height:normal;letter-spacing:normal;word-spacing:normal;text-transform:none;direction:ltr;block-progression:tb;writing-mode:lr-tb;text-anchor:start;baseline-shift:baseline;color:#000000;fill:#000000;fill-opacity:0.32156863;fill-rule:nonzero;stroke:none;stroke-width:1;marker:none;visibility:visible;display:inline;overflow:visible;enable-background:accumulate;font-family:Sans;-inkscape-font-specification:Sans"
     d="m 12.000041,12.000036 c -1.999999,0 -3.999998,1.999999 -3.999998,3.999998 l 0,3.999998 -1.999999,0 c -1.999999,0 -4.0111358,1.898413 -3.999998,3.999998 l 0,55.999972 C 2.000302,82.241469 4.075571,83.9998 6.3750438,84 L 89.625002,84 C 92.000001,84 94,82.000001 94,80.000002 l 0,-49.999975 c 0,-1.999999 -1.999999,-3.999998 -3.999998,-3.999998 l -3.999998,0 0,-9.999995 c 0,-1.999999 -1.999999,-3.999998 -3.999998,-3.999998 l -69.999965,0 z m -5.999997,9.999995 47.999976,0 c 1.014627,0 1.999999,0.988334 1.999999,1.999999 l 0,3.999998 33.999983,0 c 1.081715,0 1.999999,0.943618 1.999999,1.999999 l 0,49.999975 c 0,1.107509 -0.90423,1.999999 -1.999999,1.999999 l -83.999958,0 c -1.0254495,0 -1.999999,-0.892492 -1.999999,-1.999999 l 0,-55.999972 c 0,-1.086635 0.9580855,-1.999999 1.999999,-1.999999 z"
     id="path3779" />
  <path
     style="line-height:normal;color:#000000;fill:#000000;fill-opacity:0.32157072"
     d="m 33.999984,40.000022 0,9.999995 9.999995,0 -3.437498,-3.437498 c 2.045277,-1.6056 4.636005,-2.562499 7.437496,-2.562499 6.627413,0 11.999994,5.372597 11.999994,11.999994 0,6.627397 -5.372581,11.999994 -11.999994,11.999994 -6.627413,0 -11.999994,-5.372597 -11.999994,-11.999994 0,-1.401399 0.245968,-2.749799 0.6875,-3.999998 l -4.187498,0 c -0.32741,1.275399 -0.5,2.622399 -0.5,3.999998 0,8.836596 7.163442,15.999992 15.999992,15.999992 8.836552,0 15.999992,-7.163396 15.999992,-15.999992 0,-8.836596 -7.16344,-15.999992 -15.999992,-15.999992 -3.91374,0 -7.532386,1.353899 -10.312495,3.687498 l -3.687498,-3.687498 z m 13.812493,5.937497 a 2.000199,2.000199 0 0 0 -0.25,0.0625 2.000199,2.000199 0 0 0 -1.562499,1.999999 l 0,7.374996 a 2.000199,2.000199 0 0 0 0,0.1875 2.000199,2.000199 0 0 0 0.25,1.5 2.000199,2.000199 0 0 0 0.0625,0.0625 2.000199,2.000199 0 0 0 0.0625,0.125 2.000199,2.000199 0 0 0 0.0625,0.0625 2.000199,2.000199 0 0 0 0.0625,0.0625 2.000199,2.000199 0 0 0 0.0625,0.0625 2.000199,2.000199 0 0 0 0.0625,0.0625 2.000199,2.000199 0 0 0 0.125,0.0625 2.000199,2.000199 0 0 0 0.0625,0.0625 2.000199,2.000199 0 0 0 0.0625,0.0625 2.000199,2.000199 0 0 0 0.125,0.0625 2.000199,2.000199 0 0 0 0.249999,0.125 l 4.937498,2.874998 a 2.0155636,2.0155636 0 0 0 1.999999,-3.499998 l -4.187498,-2.437499 0,-6.812497 a 2.000199,2.000199 0 0 0 -2.187499,-2.062499 z"
     id="path4105"
     inkscape:connector-curvature="0" />
</svg>

<svg xmlns="http://www.w3.org/2000/svg" xmlns:xlink="http://www.w3.org/1999/xlink" width="96px" height="96px" viewBox="0 0 96 96" version="1.1">
<g id="surface1">
<path style=" stroke:none;fill-rule:nonzero;fill:rgb(91.372549%,69.019608%,50.196078%);fill-opacity:1;" d="M 12 12 C 10 12 8 14 8 16 L 8 20 L 6 20 C 4 20 1.988281 21.898438 2 24 L 2 80 C 2 82.242188 4.074219 84 6.375 84 L 89.625 84 C 92 84 94 82 94 80 L 94 30 C 94 28 92 26 90 26 L 86 26 L 86 16 C 86 14 84 12 82 12 Z M 12 12 "/>
<path style=" stroke:none;fill-rule:nonzero;fill:rgb(0%,0%,0%);fill-opacity:0.321569;" d="M 34 40 L 34 50 L 44 50 L 40.5625 46.5625 C 42.609375 44.957031 45.199219 44 48 44 C 54.628906 44 60 49.371094 60 56 C 60 62.628906 54.628906 68 48 68 C 41.371094 68 36 62.628906 36 56 C 36 54.597656 36.246094 53.25 36.6875 52 L 32.5 52 C 32.171875 53.277344 32 54.621094 32 56 C 32 64.835938 39.164062 72 48 72 C 56.835938 72 64 64.835938 64 56 C 64 47.164062 56.835938 40 48 40 C 44.085938 40 40.46875 41.355469 37.6875 43.6875 Z M 47.8125 45.9375 C 47.726562 45.953125 47.644531 45.972656 47.5625 46 C 46.632812 46.207031 45.976562 47.046875 46 48 L 46 55.375 C 45.996094 55.4375 45.996094 55.5 46 55.5625 C 45.882812 56.074219 45.972656 56.613281 46.25 57.0625 C 46.269531 57.082031 46.292969 57.105469 46.3125 57.125 C 46.332031 57.167969 46.351562 57.210938 46.375 57.25 C 46.394531 57.269531 46.417969 57.292969 46.4375 57.3125 C 46.457031 57.332031 46.480469 57.355469 46.5 57.375 C 46.519531 57.394531 46.542969 57.417969 46.5625 57.4375 C 46.582031 57.457031 46.605469 57.480469 46.625 57.5 C 46.664062 57.523438 46.707031 57.542969 46.75 57.5625 C 46.769531 57.582031 46.792969 57.605469 46.8125 57.625 C 46.832031 57.644531 46.855469 57.667969 46.875 57.6875 C 46.914062 57.710938 46.957031 57.730469 47 57.75 C 47.082031 57.796875 47.164062 57.839844 47.25 57.875 L 52.1875 60.75 C 53.152344 61.300781 54.386719 60.964844 54.9375 60 C 55.488281 59.035156 55.152344 57.800781 54.1875 57.25 L 50 54.8125 L 50 48 C 50.019531 47.425781 49.792969 46.867188 49.375 46.472656 C 48.953125 46.078125 48.386719 45.882812 47.8125 45.9375 Z M 47.8125 45.9375 "/>
<path style=" stroke:none;fill-rule:nonzero;fill:rgb(0%,0%,0%);fill-opacity:0.321569;" d="M 12 12 C 10 12 8 14 8 16 L 8 20 L 6 20 C 4 20 1.988281 21.898438 2 24 L 2 80 C 2 82.242188 4.074219 84 6.375 84 L 89.625 84 C 92 84 94 82 94 80 L 94 30 C 94 28 92 26 90 26 L 86 26 L 86 16 C 86 14 84 12 82 12 Z M 6 22 L 54 22 C 55.015625 22 56 22.988281 56 24 L 56 28 L 90 28 C 91.082031 28 92 28.945312 92 30 L 92 80 C 92 81.109375 91.097656 82 90 82 L 6 82 C 4.972656 82 4 81.109375 4 80 L 4 24 C 4 22.914062 4.957031 22 6 22 Z M 6 22 "/>
</g>
</svg>
